midi-port.svg

<svg fill="currentColor" viewBox="0 0 24 24"><path d="M12 2a10 10 0 0 1 10 10 10 10 0 0 1-10 10A10 10 0 0 1 2 12 10 10 0 0 1 12 2m8.18 10c0-3.82-2.63-7.04-6.18-7.93V6h-4V4.07A8.185 8.185 0 0 0 3.82 12 8.18 8.18 0 0 0 12 20.18 8.18 8.18 0 0 0 20.18 12M7 10.64A1.36 1.36 0 0 1 8.36 12 1.36 1.36 0 0 1 7 13.36c-.75 0-1.36-.61-1.36-1.36s.61-1.36 1.36-1.36m10 0A1.36 1.36 0 0 1 18.36 12 1.36 1.36 0 0 1 17 13.36 1.36 1.36 0 0 1 15.64 12 1.36 1.36 0 0 1 17 10.64m-8.64 3.63a1.37 1.37 0 0 1 1.37 1.37c0 .75-.61 1.36-1.37 1.36A1.36 1.36 0 0 1 7 15.64c0-.76.61-1.37 1.36-1.37m7.28 0c.75 0 1.36.61 1.36 1.37A1.36 1.36 0 0 1 15.64 17c-.76 0-1.37-.61-1.37-1.36a1.37 1.37 0 0 1 1.37-1.37M12 15.64A1.36 1.36 0 0 1 13.36 17 1.36 1.36 0 0 1 12 18.36 1.36 1.36 0 0 1 10.64 17 1.36 1.36 0 0 1 12 15.64"/></svg>

<svg  viewBox="0 0 24 24" fill="currentColor"><path  d="M12,2A10,10 0 0,1 22,12A10,10 0 0,1 12,22A10,10 0 0,1 2,12A10,10 0 0,1 12,2M20.18,12C20.18,8.18 17.55,4.96 14,4.07V6H10V4.07C6.45,4.96 3.82,8.18 3.82,12A8.18,8.18 0 0,0 12,20.18A8.18,8.18 0 0,0 20.18,12M7,10.64A1.36,1.36 0 0,1 8.36,12A1.36,1.36 0 0,1 7,13.36C6.25,13.36 5.64,12.75 5.64,12C5.64,11.25 6.25,10.64 7,10.64M17,10.64A1.36,1.36 0 0,1 18.36,12A1.36,1.36 0 0,1 17,13.36A1.36,1.36 0 0,1 15.64,12A1.36,1.36 0 0,1 17,10.64M8.36,14.27A1.37,1.37 0 0,1 9.73,15.64C9.73,16.39 9.12,17 8.36,17A1.36,1.36 0 0,1 7,15.64C7,14.88 7.61,14.27 8.36,14.27M15.64,14.27C16.39,14.27 17,14.88 17,15.64A1.36,1.36 0 0,1 15.64,17C14.88,17 14.27,16.39 14.27,15.64A1.37,1.37 0 0,1 15.64,14.27M12,15.64A1.36,1.36 0 0,1 13.36,17A1.36,1.36 0 0,1 12,18.36A1.36,1.36 0 0,1 10.64,17A1.36,1.36 0 0,1 12,15.64Z"/></svg>
